; generated by Slic3r 0.9.10b on 2015-02-27 at 17:38:10

; layer_height = 0.4
; perimeters = 3
; top_solid_layers = 3
; bottom_solid_layers = 3
; fill_density = 0.4
; perimeter_speed = 30
; infill_speed = 60
; travel_speed = 130
; nozzle_diameter = 0.5
; filament_diameter = 3
; extrusion_multiplier = 1
; perimeters extrusion width = 0.53mm
; infill extrusion width = 0.53mm
; solid infill extrusion width = 0.53mm
; top infill extrusion width = 0.53mm
; first layer extrusion width = 0.70mm

G21 ; set units to millimeters
M107
M104 S200 ; set temperature

M109 S200 ; wait for temperature to be reached
G90 ; use absolute coordinates
G92 E0
M82 ; use absolute distances for extrusion
G1 F1800.000 E-1.00000
G92 E0
G1 Z0.750 F7800.000
G1 X121.089 Y107.986
G1 F1800.000 E1.00000
G1 X121.275 Y106.807 F1581.946 E1.03510
G1 X121.817 Y105.743 E1.07020
G1 X122.661 Y104.899 E1.10530
G1 X123.725 Y104.357 E1.14040
G1 X124.904 Y104.171 E1.17550
G1 X126.083 Y104.357 E1.21060
G1 X127.146 Y104.899 E1.24570
G1 X127.990 Y105.743 E1.28081
G1 X128.532 Y106.807 E1.31591
G1 X128.719 Y107.986 E1.35101
G1 X128.532 Y109.165 E1.38611
G1 X127.990 Y110.228 E1.42121
G1 X127.146 Y111.073 E1.45631
G1 X126.083 Y111.614 E1.49141
G1 X124.904 Y111.801 E1.52651
G1 X123.725 Y111.614 E1.56161
G1 X122.661 Y111.073 E1.59671
G1 X121.817 Y110.228 E1.63181
G1 X121.275 Y109.165 E1.66691
G1 X121.101 Y108.063 E1.69972
G1 X121.615 Y107.986 F7800.000
G1 X121.776 Y106.969 F1581.946 E1.72998
G1 X122.243 Y106.053 E1.76024
G1 X122.971 Y105.325 E1.79050
G1 X123.887 Y104.858 E1.82076
G1 X124.904 Y104.697 E1.85102
G1 X125.920 Y104.858 E1.88128
G1 X126.837 Y105.325 E1.91154
G1 X127.565 Y106.053 E1.94180
G1 X128.032 Y106.969 E1.97206
G1 X128.193 Y107.986 E2.00233
G1 X128.032 Y109.002 E2.03259
G1 X127.565 Y109.919 E2.06285
G1 X126.837 Y110.647 E2.09311
G1 X125.920 Y111.114 E2.12337
G1 X124.904 Y111.275 E2.15363
G1 X123.887 Y111.114 E2.18389
G1 X122.971 Y110.647 E2.21415
G1 X122.243 Y109.919 E2.24441
G1 X121.776 Y109.002 E2.27467
G1 X121.627 Y108.063 E2.30264
G1 X122.141 Y107.986 F7800.000
G1 X122.276 Y107.132 F1581.946 E2.32806
G1 X122.669 Y106.362 E2.35348
G1 X123.280 Y105.751 E2.37890
G1 X124.050 Y105.358 E2.40432
G1 X124.904 Y105.223 E2.42974
G1 X125.758 Y105.358 E2.45516
G1 X126.528 Y105.751 E2.48058
G1 X126.598 Y105.820 E2.48347
G1 X127.139 Y106.362 E2.50600
G1 X127.532 Y107.132 E2.53142
G1 X127.667 Y107.986 E2.55684
G1 X127.532 Y108.840 E2.58226
G1 X127.139 Y109.610 E2.60768
G1 X126.528 Y110.221 E2.63310
G1 X125.758 Y110.614 E2.65852
G1 X124.904 Y110.749 E2.68394
G1 X124.050 Y110.614 E2.70936
G1 X123.280 Y110.221 E2.73478
G1 X122.669 Y109.610 E2.76020
G1 X122.276 Y108.840 E2.78562
G1 X122.153 Y108.063 E2.80875
G1 X122.604 Y107.750 F7800.000
G1 F1800.000 E1.80875
G92 E0
G1 X120.208 Y107.919 F7800.000
G1 F1800.000 E1.00000
G1 X119.877 Y104.544 F1581.946 E1.09973
G1 X118.943 Y101.340 E1.19786
G1 X118.855 Y101.090 E1.20565
G1 X117.343 Y98.181 E1.30204
G1 X117.220 Y97.974 E1.30914
G1 X115.024 Y95.235 E1.41234
G1 X112.342 Y92.965 E1.51568
G1 X109.275 Y91.249 E1.61903
G1 X105.939 Y90.153 E1.72227
G1 X102.681 Y89.733 E1.81887
G1 X102.449 Y89.715 E1.82573
G1 X98.953 Y89.950 E1.92874
G1 X95.591 Y90.843 E2.03104
G1 X92.386 Y92.396 E2.13575
G1 X89.755 Y94.365 E2.23240
G1 X89.580 Y94.509 E2.23907
G1 X87.373 Y96.947 E2.33575
G1 X87.197 Y97.175 E2.34422
G1 X85.438 Y100.105 E2.44471
G1 X84.270 Y103.295 E2.54462
G1 X84.057 Y103.820 E2.56128
G1 X83.789 Y104.174 E2.57434
G1 X83.438 Y104.446 E2.58739
G1 X83.028 Y104.617 E2.60045
G1 X82.502 Y104.687 E2.61605
G1 X71.677 Y104.687 E2.93435
G1 X71.677 Y102.285 E3.00498
G1 X76.493 Y102.285 E3.14660
G1 X84.440 Y96.931 E3.42836
G1 X85.537 Y95.385 E3.48410
G1 X87.852 Y92.845 E3.58517
G1 X90.556 Y90.723 E3.68623
G1 X93.558 Y89.085 E3.78679
G1 X96.812 Y87.957 E3.88808
G1 X100.185 Y87.387 E3.98864
G1 X103.613 Y87.382 E4.08945
G1 X107.004 Y87.946 E4.19054
G1 X110.249 Y89.061 E4.29144
G1 X113.258 Y90.694 E4.39210
G1 X115.972 Y92.815 E4.49339
G1 X118.286 Y95.344 E4.59419
G1 X120.270 Y98.410 E4.70156
G1 X121.745 Y100.473 E4.77616
G1 X123.771 Y102.210 E4.85463
G1 X123.952 Y102.338 E4.86114
G1 X126.261 Y103.468 E4.93675
G1 X127.715 Y104.238 E4.98511
G1 X128.732 Y105.285 E5.02805
G1 X129.378 Y106.595 E5.07099
G1 X129.588 Y108.040 E5.11394
G1 X129.344 Y109.480 E5.15688
G1 X128.668 Y110.775 E5.19982
G1 X127.627 Y111.798 E5.24276
G1 X126.320 Y112.451 E5.28570
G1 X124.877 Y112.671 E5.32865
G1 X123.435 Y112.435 E5.37159
G1 X122.137 Y111.766 E5.41453
G1 X121.107 Y110.731 E5.45747
G1 X120.447 Y109.428 E5.50041
G1 X120.221 Y107.996 E5.54306
G1 X119.695 Y108.000 F7800.000
G1 X119.362 Y104.621 F1581.946 E5.64290
G1 X118.377 Y101.297 E5.74484
G1 X116.791 Y98.270 E5.84532
G1 X114.659 Y95.607 E5.94563
G1 X112.055 Y93.399 E6.04603
G1 X109.076 Y91.731 E6.14643
G1 X105.835 Y90.664 E6.24677
G1 X102.616 Y90.250 E6.34220
G1 X102.445 Y90.236 E6.34723
G1 X99.046 Y90.463 E6.44743
G1 X95.768 Y91.332 E6.54712
G1 X92.668 Y92.834 E6.64843
G1 X90.066 Y94.781 E6.74398
G1 X89.940 Y94.886 E6.74881
G1 X87.670 Y97.402 E6.84845
G1 X85.972 Y100.209 E6.94491
G1 X85.863 Y100.432 E6.95223
G1 X84.759 Y103.472 E7.04732
G1 X84.513 Y104.079 E7.06659
G1 X84.161 Y104.543 E7.08370
G1 X83.701 Y104.899 E7.10080
G1 X83.164 Y105.123 E7.11791
G1 X82.536 Y105.206 E7.13654
G1 X71.158 Y105.206 E7.47114
G1 X71.158 Y101.765 E7.57232
G1 X76.335 Y101.765 E7.72455
G1 X84.071 Y96.553 E7.99886
G1 X85.136 Y95.051 E8.05299
G1 X87.507 Y92.452 E8.15643
G1 X90.276 Y90.281 E8.25991
G1 X93.365 Y88.598 E8.36336
G1 X96.696 Y87.448 E8.46698
G1 X100.159 Y86.864 E8.57024
G1 X103.678 Y86.863 E8.67371
G1 X107.142 Y87.442 E8.77699
G1 X110.458 Y88.583 E8.88012
G1 X113.557 Y90.265 E8.98381
G1 X116.323 Y92.431 E9.08711
G1 X118.692 Y95.017 E9.19022
G1 X120.694 Y98.109 E9.29855
G1 X122.137 Y100.128 E9.37152
G1 X124.091 Y101.799 E9.44714
G1 X124.219 Y101.890 E9.45174
G1 X126.497 Y103.005 E9.52633
G1 X128.030 Y103.817 E9.57734
G1 X129.162 Y104.982 E9.62511
G1 X129.880 Y106.439 E9.67287
G1 X130.114 Y108.047 E9.72064
G1 X129.843 Y109.648 E9.76840
G1 X129.091 Y111.088 E9.81616
G1 X127.932 Y112.226 E9.86393
G1 X126.479 Y112.953 E9.91169
G1 X124.874 Y113.197 E9.95946
G1 X123.271 Y112.934 E10.00722
G1 X121.826 Y112.191 E10.05499
G1 X120.681 Y111.039 E10.10275
G1 X119.946 Y109.590 E10.15051
G1 X119.707 Y108.077 E10.19557
G1 X119.182 Y108.081 F7800.000
G1 X118.847 Y104.698 F1107.362 E10.29552
G1 X117.948 Y101.642 E10.38920
G1 X117.899 Y101.504 E10.39349
G1 X116.363 Y98.567 E10.49097
G1 X114.294 Y95.979 E10.58840
G1 X111.768 Y93.834 E10.68585
G1 X108.877 Y92.213 E10.78331
G1 X105.731 Y91.174 E10.88074
G1 X102.442 Y90.757 E10.97822
G1 X99.138 Y90.977 E11.07560
G1 X95.946 Y91.821 E11.17268
G1 X92.950 Y93.272 E11.27058
G1 X90.300 Y95.262 E11.36802
G1 X88.087 Y97.714 E11.46514
G1 X86.375 Y100.557 E11.56272
G1 X85.248 Y103.648 E11.65949
G1 X84.968 Y104.338 E11.68137
G1 X84.534 Y104.912 E11.70252
G1 X83.965 Y105.352 E11.72368
G1 X83.301 Y105.629 E11.74484
G1 X82.571 Y105.726 E11.76650
G1 X70.638 Y105.726 E12.11739
G1 X70.638 Y101.246 E12.24913
G1 X76.176 Y101.246 E12.41197
G1 X83.702 Y96.175 E12.67883
G1 X84.748 Y94.705 E12.73189
G1 X87.187 Y92.042 E12.83806
G1 X89.988 Y89.847 E12.94269
G1 X93.149 Y88.124 E13.04856
G1 X96.553 Y86.947 E13.15449
G1 X100.101 Y86.347 E13.26028
G1 X103.744 Y86.347 E13.36742
G1 X107.256 Y86.934 E13.47210
G1 X110.660 Y88.103 E13.57796
G1 X113.828 Y89.821 E13.68392
G1 X116.666 Y92.039 E13.78983
G1 X119.098 Y94.691 E13.89565
G1 X121.119 Y97.808 E14.00488
G1 X122.529 Y99.783 E14.07624
G1 X124.485 Y101.443 E14.15168
G1 X126.733 Y102.542 E14.22524
G1 X128.346 Y103.396 E14.27891
G1 X129.592 Y104.679 E14.33150
G1 X130.382 Y106.283 E14.38409
G1 X130.640 Y108.053 E14.43667
G1 X130.341 Y109.816 E14.48926
G1 X129.514 Y111.401 E14.54185
G1 X128.238 Y112.655 E14.59443
G1 X126.725 Y113.411 E14.64419
G1 X126.639 Y113.454 E14.64702
G1 X124.870 Y113.723 E14.69960
G1 X123.106 Y113.434 E14.75219
G1 X121.516 Y112.615 E14.80478
G1 X120.255 Y111.347 E14.85736
G1 X119.446 Y109.752 E14.90995
G1 X119.194 Y108.158 E14.95741
G1 X119.598 Y107.770 F7800.000
G1 X120.489 Y106.963
G1 X121.069 Y106.383 F3163.891 E14.98164
G1 X120.424 Y106.290 E15.00089
G1 X123.954 Y102.759 E15.14838
G1 X123.301 Y104.151 E15.19379
G1 X124.450 Y103.002 E15.24178
G1 X124.306 Y103.884 E15.26819
G1 X124.946 Y103.244 E15.29493
G1 X125.183 Y103.745 E15.31130
G1 X125.442 Y103.487 E15.32210
G1 X120.359 Y105.617 F7800.000
G1 X123.501 Y102.474 F3163.891 E15.45338
G1 X123.104 Y102.133 E15.46884
G1 X120.294 Y104.944 E15.58623
G1 X120.208 Y104.291 E15.60567
G1 X122.706 Y101.793 E15.71004
G1 X122.309 Y101.452 E15.72551
G1 X120.039 Y103.721 E15.82031
G1 X119.871 Y103.152 E15.83786
G1 X121.912 Y101.111 E15.92310
G1 X121.514 Y100.770 E15.93857
G1 X119.703 Y102.582 E16.01424
G1 X119.534 Y102.012 E16.03179
G1 X121.195 Y100.352 E16.10115
G1 X120.887 Y99.921 E16.11678
G1 X119.366 Y101.442 E16.18031
G1 X119.177 Y100.893 E16.19747
G1 X120.579 Y99.491 E16.25603
G1 X120.271 Y99.060 E16.27166
G1 X118.925 Y100.407 E16.32791
G1 X118.672 Y99.921 E16.34408
G1 X119.964 Y98.630 E16.39802
G1 X119.673 Y98.182 E16.41379
G1 X118.420 Y99.436 E16.46616
G1 X118.167 Y98.950 E16.48233
G1 X119.383 Y97.734 E16.53313
G1 X119.093 Y97.286 E16.54889
G1 X117.915 Y98.464 E16.59813
G1 X117.661 Y97.980 E16.61428
G1 X118.803 Y96.838 E16.66199
G1 X118.513 Y96.389 E16.67776
G1 X117.359 Y97.544 E16.72599
G1 X117.032 Y97.133 E16.74151
G1 X118.223 Y95.941 E16.79128
G1 X117.922 Y95.504 E16.80696
G1 X116.705 Y96.722 E16.85783
G1 X116.378 Y96.311 E16.87335
G1 X117.570 Y95.119 E16.92314
G1 X117.217 Y94.733 E16.93858
G1 X116.051 Y95.900 E16.98729
G1 X115.723 Y95.488 E17.00281
G1 X116.864 Y94.348 E17.05044
G1 X116.511 Y93.963 E17.06587
G1 X115.391 Y95.082 E17.11264
G1 X115.009 Y94.727 E17.12807
G1 X116.158 Y93.578 E17.17608
G1 X115.805 Y93.192 E17.19152
G1 X114.610 Y94.387 E17.24143
G1 X114.212 Y94.047 E17.25690
G1 X115.407 Y92.852 E17.30683
G1 X114.992 Y92.529 E17.32236
G1 X113.813 Y93.708 E17.37161
G1 X113.415 Y93.368 E17.38708
G1 X114.578 Y92.205 E17.43565
G1 X114.163 Y91.882 E17.45119
G1 X113.016 Y93.028 E17.49909
G1 X112.610 Y92.696 E17.51458
G1 X113.748 Y91.558 E17.56212
G1 X113.334 Y91.234 E17.57766
G1 X112.146 Y92.422 E17.62726
G1 X111.674 Y92.156 E17.64327
G1 X112.901 Y90.929 E17.69451
G1 X112.422 Y90.670 E17.71059
G1 X111.202 Y91.890 E17.76156
G1 X110.730 Y91.623 E17.77756
G1 X111.944 Y90.410 E17.82825
G1 X111.465 Y90.151 E17.84433
G1 X110.258 Y91.357 E17.89473
G1 X109.786 Y91.091 E17.91074
G1 X110.986 Y89.891 E17.96086
G1 X110.507 Y89.632 E17.97694
G1 X109.283 Y90.856 E18.02807
G1 X108.728 Y90.673 E18.04535
G1 X110.020 Y89.381 E18.09934
G1 X109.471 Y89.192 E18.11651
G1 X108.172 Y90.491 E18.17076
G1 X107.616 Y90.308 E18.18803
G1 X108.921 Y89.003 E18.24254
G1 X108.372 Y88.815 E18.25971
G1 X107.061 Y90.126 E18.31447
G1 X106.505 Y89.943 E18.33175
G1 X107.822 Y88.626 E18.38677
G1 X107.273 Y88.438 E18.40393
G1 X105.937 Y89.773 E18.45973
G1 X105.281 Y89.691 E18.47926
G1 X106.696 Y88.276 E18.53836
G1 X106.063 Y88.171 E18.55732
G1 X104.625 Y89.609 E18.61739
G1 X103.969 Y89.527 E18.63692
G1 X105.430 Y88.066 E18.69795
G1 X104.797 Y87.961 E18.71691
G1 X103.313 Y89.445 E18.77890
G1 X102.656 Y89.363 E18.79844
G1 X104.164 Y87.856 E18.86140
G1 X103.522 Y87.759 E18.88056
G1 X101.907 Y89.374 E18.94804
G1 X101.115 Y89.428 E18.97147
G1 X102.783 Y87.760 E19.04113
G1 X102.044 Y87.761 E19.06297
G1 X100.324 Y89.481 E19.13482
G1 X99.532 Y89.535 E19.15825
G1 X101.304 Y87.762 E19.23229
G1 X100.565 Y87.763 E19.25412
G1 X98.701 Y89.628 E19.33201
G1 X97.695 Y89.895 E19.36274
G1 X99.747 Y87.843 E19.44845
G1 X98.859 Y87.993 E19.47506
G1 X96.690 Y90.162 E19.56566
G1 X95.685 Y90.429 E19.59639
G1 X97.971 Y88.143 E19.69188
G1 X97.082 Y88.293 E19.71849
G1 X94.357 Y91.019 E19.83232
G1 X92.937 Y91.700 E19.87884
G1 X96.001 Y88.637 E20.00679
G1 X94.871 Y89.028 E20.04210
G1 X90.749 Y93.150 E20.21429
G1 X90.220 Y91.465 F7800.000
G1 X85.262 Y96.423 F3163.891 E20.42141
G1 X86.808 Y97.092 F7800.000
G1 X79.589 Y104.310 F3163.891 E20.72294
G1 X80.327 Y104.310 E20.74475
G1 X85.700 Y98.937 E20.96920
G1 X84.903 Y100.473 E21.02030
G1 X81.066 Y104.310 E21.18061
G1 X81.804 Y104.310 E21.20241
G1 X84.476 Y101.638 E21.31403
G1 X84.048 Y102.804 E21.35070
G1 X82.552 Y104.300 E21.41322
G1 X78.851 Y104.310 F7800.000
G1 X93.742 Y89.419 F3163.891 E22.03524
G1 X92.131 Y90.292 E22.08936
G1 X78.113 Y104.310 E22.67493
G1 X77.375 Y104.310 E22.69673
G1 X84.011 Y97.674 E22.97394
G1 X81.748 Y99.199 F7800.000
G1 X76.636 Y104.310 F3163.891 E23.18746
G1 X75.898 Y104.310 E23.20926
G1 X79.485 Y100.723 E23.35909
G1 X77.222 Y102.248 F7800.000
G1 X75.160 Y104.310 F3163.891 E23.44524
G1 X74.422 Y104.310 E23.46704
G1 X76.071 Y102.662 E23.53591
G1 X75.332 Y102.662 E23.55771
G1 X73.684 Y104.310 E23.62658
G1 X72.946 Y104.310 E23.64838
G1 X74.594 Y102.662 E23.71725
G1 X73.856 Y102.662 E23.73905
G1 X72.207 Y104.310 E23.80792
G1 X72.054 Y103.726 E23.82577
G1 X73.118 Y102.662 E23.87022
G1 X72.380 Y102.662 E23.89202
G1 X72.054 Y102.987 E23.90563
G1 F1800.000 E22.90563
G92 E0
G1 X126.559 Y104.191 F7800.000
G1 F1800.000 E1.00000
G1 X126.659 Y104.091 F1054.630 E1.00217
G1 X126.815 Y104.321 E1.00646
G1 X126.911 Y104.225 E1.00855
G1 X127.071 Y104.451 E1.01283
G1 X127.163 Y104.359 E1.01485
G1 X127.326 Y104.582 E1.01912
G1 X127.415 Y104.492 E1.02107
G1 X127.625 Y104.669 E1.02530
G1 X127.528 Y104.765 E1.02740
G1 X127.721 Y104.958 E1.03162
G1 X127.815 Y104.865 E1.03366
G1 X128.005 Y105.060 E1.03788
G1 X127.914 Y105.151 E1.03986
G1 X128.107 Y105.344 E1.04408
G1 X128.195 Y105.256 E1.04600
G1 X128.385 Y105.452 E1.05021
G1 X128.297 Y105.541 E1.05215
G1 X128.528 Y105.696 E1.05645
G1 X128.427 Y105.796 E1.05865
G1 X128.655 Y105.954 E1.06293
G1 X128.557 Y106.052 E1.06507
G1 X128.782 Y106.213 E1.06934
G1 X128.687 Y106.308 E1.07142
G1 X128.910 Y106.471 E1.07568
G1 X128.818 Y106.563 E1.07769
G1 X129.030 Y106.737 E1.08193
G1 X128.910 Y106.857 E1.08455
G1 X129.079 Y107.074 E1.08879
G1 X128.962 Y107.190 E1.09134
G1 X129.128 Y107.411 E1.09559
G1 X129.015 Y107.524 E1.09806
G1 X129.177 Y107.748 E1.10232
G1 X129.068 Y107.857 E1.10471
G1 X129.208 Y108.103 E1.10908
G1 X129.044 Y108.267 E1.11266
G1 X129.129 Y108.567 E1.11749
G1 X128.971 Y108.725 E1.12093
G1 X129.050 Y109.032 E1.12583
G1 X128.899 Y109.184 E1.12913
G1 X128.872 Y109.596 E1.13552
G1 X128.566 Y109.902 E1.14220
G1 X128.450 Y110.404 F7800.000
G1 X127.301 Y111.554 F1054.630 E1.16731
G1 X126.820 Y111.648 E1.17487
G1 X126.529 Y111.939 E1.18123
G1 X126.102 Y111.981 E1.18786
G1 X125.942 Y112.140 E1.19134
G1 X125.643 Y112.053 E1.19615
G1 X125.487 Y112.209 E1.19955
G1 X125.185 Y112.126 E1.20440
G1 X125.032 Y112.278 E1.20772
G1 X124.775 Y112.150 E1.21216
G1 X124.659 Y112.265 E1.21469
G1 X124.441 Y112.097 E1.21893
G1 X124.328 Y112.211 E1.22142
G1 X124.108 Y112.044 E1.22568
G1 X123.996 Y112.157 E1.22813
G1 X123.775 Y111.992 E1.23239
G1 X123.664 Y112.103 E1.23481
G1 X123.481 Y111.900 E1.23903
G1 X123.383 Y111.998 E1.24117
G1 X123.226 Y111.769 E1.24545
G1 X123.129 Y111.867 E1.24757
G1 X122.970 Y111.639 E1.25185
G1 X122.874 Y111.735 E1.25396
G1 X122.714 Y111.509 E1.25823
G1 X122.619 Y111.604 E1.26032
G1 X122.459 Y111.379 E1.26459
G1 X122.364 Y111.473 E1.26665
G1 X122.170 Y111.282 E1.27087
G1 X122.262 Y111.189 E1.27289
G1 X122.069 Y110.996 E1.27710
G1 X121.977 Y111.088 E1.27912
G1 X121.785 Y110.895 E1.28333
G1 X121.876 Y110.803 E1.28533
G1 X121.683 Y110.610 E1.28954
G1 X121.592 Y110.701 E1.29153
G1 X121.402 Y110.506 E1.29574
G1 X121.499 Y110.408 E1.29787
G1 X121.272 Y110.250 E1.30215
G1 X121.369 Y110.153 E1.30427
G1 X121.142 Y109.994 E1.30855
G1 X121.239 Y109.897 E1.31066
G1 X121.012 Y109.738 E1.31493
G1 X121.109 Y109.641 E1.31704
G1 X120.883 Y109.482 E1.32131
G1 X120.978 Y109.386 E1.32341
G1 X120.780 Y109.199 E1.32762
G1 X120.893 Y109.085 E1.33011
G1 X120.727 Y108.865 E1.33436
G1 X120.841 Y108.752 E1.33684
G1 X120.674 Y108.532 E1.34110
G1 X120.788 Y108.418 E1.34357
G1 X120.622 Y108.199 E1.34783
G1 X120.690 Y108.131 E1.34931
G1 F1800.000 E0.34931
G92 E0